; generated by Slic3r 1.2.9 on 2017-08-23 at 19:59:51

; external perimeters extrusion width = 0.40mm
; perimeters extrusion width = 0.48mm
; infill extrusion width = 0.48mm
; solid infill extrusion width = 0.48mm
; top infill extrusion width = 0.48mm

M107
M190 S80 ; set bed temperature
M104 S195 ; set temperature
G28 ; home all axes
G1 Z5 F5000 ; lift nozzle

M109 S195 ; wait for temperature to be reached
G21 ; set units to millimeters
G90 ; use absolute coordinates
M82 ; use absolute distances for extrusion
G92 E0
G1 Z0.400 F7800.000
G1 E-2.00000 F2400.00000
G92 E0
G1 X101.495 Y82.947 F7800.000
G1 E2.00000 F2400.00000
G1 X101.997 Y82.445 E2.08104 F1800.000
G1 X103.173 Y81.507 E2.25247
G1 X103.775 Y81.129 E2.33351
G1 X105.130 Y80.477 E2.50494
G1 X105.800 Y80.242 E2.58598
G1 X107.266 Y79.908 E2.75739
G1 X107.973 Y79.828 E2.83845
G1 X108.724 Y79.786 E2.92425
G1 X191.276 Y79.786 E12.33637
G1 X192.027 Y79.828 E12.42218
G1 X192.734 Y79.908 E12.50323 F1800.000
G1 X194.200 Y80.242 E12.67464
G1 X194.870 Y80.477 E12.75568
G1 X196.225 Y81.129 E12.92711
G1 X196.827 Y81.507 E13.00815
G1 X198.003 Y82.445 E13.17958
G1 X198.455 Y82.897 E13.25254
G1 X199.443 Y84.123 E13.43203
G1 X199.821 Y84.725 E13.51307
G1 X200.473 Y86.080 E13.68450
G1 X200.708 Y86.751 E13.76557
G1 X201.042 Y88.216 E13.93694
G1 X201.122 Y88.923 E14.01801
G1 X201.164 Y89.674 E14.10381
G1 X201.164 Y210.326 E27.85988
G1 X201.122 Y211.077 E27.94570
G1 X201.042 Y211.784 E28.02675
G1 X200.708 Y213.249 E28.19815
G1 X200.473 Y213.920 E28.27919
G1 X199.821 Y215.275 E28.45061
G1 X199.481 Y215.817 E28.52357
G1 X198.505 Y217.053 E28.70307
G1 X198.003 Y217.555 E28.78410
G1 X196.827 Y218.493 E28.95554
G1 X196.225 Y218.871 E29.03657
G1 X194.870 Y219.523 E29.20801
G1 X194.199 Y219.758 E29.28908
G1 X192.734 Y220.092 E29.46045
G1 X192.027 Y220.172 E29.54152
G1 X191.276 Y220.214 E29.62732
G1 X108.724 Y220.214 E39.03943
G1 X107.973 Y220.172 E39.12525
G1 X107.266 Y220.092 E39.20630
G1 X105.800 Y219.758 E39.37771
G1 X105.130 Y219.523 E39.45875
G1 X103.775 Y218.871 E39.63018
G1 X103.173 Y218.493 E39.71123
G1 X101.997 Y217.555 E39.88265
G1 X101.495 Y217.053 E39.96368
G1 X100.557 Y215.877 E40.13516
G1 X100.179 Y215.275 E40.21619
G1 X99.527 Y213.920 E40.38762
G1 X99.292 Y213.249 E40.46866
G1 X98.958 Y211.784 E40.64005
G1 X98.878 Y211.077 E40.72111
G1 X98.836 Y210.326 E40.80693
G1 X98.836 Y89.674 E54.56299
G1 X98.878 Y88.923 E54.64882
G1 X98.958 Y88.216 E54.72987
G1 X99.292 Y86.751 E54.90126
G1 X99.527 Y86.080 E54.98230
G1 X100.179 Y84.725 E55.15373
G1 X100.557 Y84.123 E55.23477
G1 X101.457 Y82.994 E55.39939
G1 E53.39939 F2400.00000
G92 E0
G1 X189.527 Y204.135 F7800.000
G1 E2.00000 F2400.00000
G1 X190.178 Y204.651 E2.09471 F1800.000
G1 X190.673 Y205.310 E2.18874
G1 X190.992 Y206.107 E2.28656
G1 X191.096 Y206.909 E2.37877
G1 X190.992 Y207.711 E2.47099
G1 X190.673 Y208.507 E2.56881
G1 X190.160 Y209.191 E2.66633
G1 X189.416 Y209.741 E2.77176
G1 X188.748 Y210.018 E2.85424
G1 X187.922 Y210.147 E2.94947
G1 X186.975 Y210.025 E3.05835
G1 X186.191 Y209.682 E3.15596
G1 X185.539 Y209.167 E3.25067
G1 X185.045 Y208.507 E3.34470
G1 X184.838 Y208.009 E3.40613
G1 X184.725 Y207.711 E3.44252
G1 X184.621 Y206.909 E3.53474
G1 X184.725 Y206.107 E3.62697
G1 X184.838 Y205.808 E3.66336
G1 X185.045 Y205.310 E3.72479
G1 X185.558 Y204.626 E3.82231
G1 X186.301 Y204.076 E3.92774
G1 X186.970 Y203.799 E4.01022
G1 X187.795 Y203.671 E4.10546 F1800.000
G1 X188.742 Y203.792 E4.21434
G1 X189.472 Y204.111 E4.30510
G1 X189.156 Y204.752 F7800.000
G1 X189.662 Y205.153 E4.37873 F1800.000
G1 X190.048 Y205.667 E4.45195
G1 X190.295 Y206.281 E4.52748
G1 X190.376 Y206.909 E4.59959
G1 X190.295 Y207.536 E4.67171
G1 X190.048 Y208.151 E4.74724
G1 X189.651 Y208.679 E4.82258
G1 X189.062 Y209.115 E4.90612
G1 X188.553 Y209.325 E4.96888
G1 X187.913 Y209.425 E5.04282
G1 X187.167 Y209.330 E5.12846
G1 X186.562 Y209.065 E5.20385
G1 X186.055 Y208.664 E5.27748
G1 X185.670 Y208.151 E5.35070
G1 X185.502 Y207.746 E5.40063
G1 X185.423 Y207.536 E5.42623
G1 X185.341 Y206.909 E5.49835
G1 X185.423 Y206.281 E5.57047
G1 X185.502 Y206.071 E5.59607
G1 X185.670 Y205.667 E5.64600
G1 X186.066 Y205.138 E5.72135
G1 X186.656 Y204.703 E5.80489
G1 X187.164 Y204.492 E5.86765
G1 X187.805 Y204.392 E5.94158 F1800.000
G1 X188.550 Y204.487 E6.02723
G1 X189.101 Y204.728 E6.09578
G1 X188.785 Y205.370 F7800.000
G1 X189.146 Y205.656 E6.14833 F1800.000
G1 X189.422 Y206.023 E6.20073
G1 X189.597 Y206.456 E6.25397
G1 X189.656 Y206.909 E6.30599
G1 X189.597 Y207.361 E6.35800
G1 X189.422 Y207.794 E6.41124
G1 X189.142 Y208.167 E6.46441
G1 X188.708 Y208.489 E6.52606
G1 X188.359 Y208.633 E6.56910
G1 X187.903 Y208.704 E6.62174
G1 X187.360 Y208.635 E6.68415
G1 X186.932 Y208.448 E6.73732
G1 X186.571 Y208.162 E6.78987
G1 X186.295 Y207.794 E6.84228
G1 X186.166 Y207.483 E6.88071
G1 X186.120 Y207.361 E6.89552
G1 X186.062 Y206.909 E6.94754
G1 X186.120 Y206.456 E6.99955
G1 X186.166 Y206.335 E7.01437
G1 X186.295 Y206.023 E7.05280
G1 X186.575 Y205.650 E7.10597
G1 X187.010 Y205.329 E7.16761
G1 X187.359 Y205.184 E7.21065
G1 X187.815 Y205.113 E7.26329 F1800.000
G1 X188.358 Y205.183 E7.32570
G1 X188.730 Y205.346 E7.37204
G1 X189.143 Y205.191 F7800.000
G1 E5.37204 F2400.00000
G92 E0
G1 X115.379 Y206.909 F7800.000
G1 E2.00000 F2400.00000
G1 X115.275 Y207.711 E2.09222 F1800.000
G1 X114.955 Y208.507 E2.19004
G1 X114.442 Y209.191 E2.28756
G1 X113.699 Y209.741 E2.39298
G1 X113.030 Y210.018 E2.47546
G1 X112.205 Y210.147 E2.57070
G1 X111.258 Y210.025 E2.67958
G1 X110.473 Y209.682 E2.77718
G1 X109.822 Y209.167 E2.87189
G1 X109.327 Y208.507 E2.96593
G1 X109.121 Y208.009 E3.02736
G1 X109.008 Y207.711 E3.06375
G1 X108.904 Y206.909 E3.15597
G1 X109.008 Y206.107 E3.24819
G1 X109.327 Y205.310 E3.34600
G1 X109.840 Y204.626 E3.44353
G1 X110.584 Y204.076 E3.54895
G1 X111.252 Y203.799 E3.63144
G1 X112.078 Y203.671 E3.72667 F1800.000
G1 X113.025 Y203.792 E3.83555
G1 X113.809 Y204.135 E3.93316
G1 X114.461 Y204.651 E4.02787
G1 X114.955 Y205.310 E4.12189
G1 X115.275 Y206.107 E4.21971
G1 X115.371 Y206.849 E4.30509
G1 X114.659 Y206.909 F7800.000
G1 X114.577 Y207.536 E4.37720 F1800.000
G1 X114.330 Y208.151 E4.45274
G1 X113.934 Y208.679 E4.52808
G1 X113.344 Y209.115 E4.61161
G1 X112.836 Y209.325 E4.67437
G1 X112.195 Y209.425 E4.74831
G1 X111.450 Y209.330 E4.83396
G1 X110.844 Y209.065 E4.90935
G1 X110.338 Y208.664 E4.98298
G1 X109.952 Y208.151 E5.05620
G1 X109.785 Y207.746 E5.10613
G1 X109.705 Y207.536 E5.13173
G1 X109.624 Y206.909 E5.20385
G1 X109.705 Y206.281 E5.27597
G1 X109.952 Y205.667 E5.35149
G1 X110.349 Y205.138 E5.42684
G1 X110.938 Y204.703 E5.51038
G1 X111.447 Y204.492 E5.57314
G1 X112.087 Y204.392 E5.64707 F1800.000
G1 X112.833 Y204.487 E5.73272
G1 X113.438 Y204.752 E5.80811
G1 X113.945 Y205.153 E5.88174
G1 X114.330 Y205.667 E5.95496
G1 X114.577 Y206.281 E6.03048
G1 X114.651 Y206.849 E6.09576
G1 X113.938 Y206.909 F7800.000
G1 X113.880 Y207.361 E6.14778 F1800.000
G1 X113.705 Y207.794 E6.20102
G1 X113.425 Y208.167 E6.25419
G1 X112.990 Y208.489 E6.31583
G1 X112.641 Y208.633 E6.35887
G1 X112.185 Y208.704 E6.41151
G1 X111.642 Y208.635 E6.47392
G1 X111.215 Y208.448 E6.52709
G1 X110.854 Y208.162 E6.57964
G1 X110.578 Y207.794 E6.63205
G1 X110.449 Y207.483 E6.67048
G1 X110.403 Y207.361 E6.68529
G1 X110.344 Y206.909 E6.73731
G1 X110.403 Y206.456 E6.78933
G1 X110.578 Y206.023 E6.84256
G1 X110.858 Y205.650 E6.89573
G1 X111.292 Y205.329 E6.95738
G1 X111.641 Y205.184 E7.00042
G1 X112.097 Y205.113 E7.05306 F1800.000
G1 X112.640 Y205.183 E7.11547
G1 X113.068 Y205.370 E7.16864
G1 X113.429 Y205.656 E7.22119
G1 X113.705 Y206.023 E7.27360
G1 X113.880 Y206.456 E7.32684
G1 X113.931 Y206.849 E7.37201
G1 X114.276 Y207.123 F7800.000
G1 X112.205 Y96.329 F7800.000
G1 X111.258 Y96.208 E7.48089 F1800.000
G1 X110.473 Y95.865 E7.57850
G1 X109.822 Y95.349 E7.67321
G1 X109.327 Y94.690 E7.76724
G1 X109.008 Y93.893 E7.86505
G1 X108.904 Y93.091 E7.95727
G1 X109.008 Y92.289 E8.04949
G1 X109.327 Y91.493 E8.14731
G1 X109.840 Y90.809 E8.24483
G1 X110.584 Y90.259 E8.35026
G1 X111.252 Y89.982 E8.43274
G1 X112.078 Y89.853 E8.52797 F1800.000
G1 X113.025 Y89.975 E8.63685
G1 X113.809 Y90.318 E8.73446
G1 X114.461 Y90.833 E8.82917
G1 X114.955 Y91.493 E8.92320
G1 X115.275 Y92.289 E9.02102
G1 X115.379 Y93.091 E9.11323
G1 X115.275 Y93.893 E9.20545
G1 X114.955 Y94.690 E9.30327
G1 X114.442 Y95.374 E9.40079
G1 X113.699 Y95.924 E9.50622
G1 X113.030 Y96.201 E9.58870
G1 X112.264 Y96.320 E9.67709
G1 X112.195 Y95.608 F7800.000
G1 X111.450 Y95.513 E9.76274 F1800.000
G1 X110.844 Y95.248 E9.83812
G1 X110.338 Y94.847 E9.91176
G1 X109.952 Y94.333 E9.98497
G1 X109.705 Y93.719 E10.06050
G1 X109.624 Y93.091 E10.13262
G1 X109.705 Y92.464 E10.20474
G1 X109.952 Y91.849 E10.28026
G1 X110.349 Y91.321 E10.35561
G1 X110.938 Y90.885 E10.43915
G1 X111.447 Y90.675 E10.50190
G1 X112.087 Y90.575 E10.57584 F1800.000
G1 X112.833 Y90.670 E10.66149
G1 X113.438 Y90.935 E10.73688
G1 X113.945 Y91.336 E10.81051
G1 X114.330 Y91.849 E10.88372
G1 X114.577 Y92.464 E10.95925
G1 X114.659 Y93.091 E11.03137
G1 X114.577 Y93.719 E11.10349
G1 X114.330 Y94.333 E11.17902
G1 X113.934 Y94.862 E11.25436
G1 X113.344 Y95.297 E11.33790
G1 X112.836 Y95.508 E11.40066
G1 X112.254 Y95.599 E11.46775
G1 X112.185 Y94.887 F7800.000
G1 X111.642 Y94.817 E11.53016 F1800.000
G1 X111.215 Y94.630 E11.58334
G1 X110.854 Y94.344 E11.63589
G1 X110.578 Y93.977 E11.68829
G1 X110.403 Y93.544 E11.74153
G1 X110.344 Y93.091 E11.79355
G1 X110.403 Y92.639 E11.84556
G1 X110.578 Y92.206 E11.89880
G1 X110.858 Y91.833 E11.95197
G1 X111.292 Y91.511 E12.01362
G1 X111.641 Y91.367 E12.05665
G1 X112.097 Y91.296 E12.10930 F1800.000
G1 X112.640 Y91.365 E12.17171
G1 X113.068 Y91.552 E12.22488
G1 X113.429 Y91.838 E12.27743
G1 X113.705 Y92.206 E12.32984
G1 X113.880 Y92.639 E12.38308
G1 X113.938 Y93.091 E12.43509
G1 X113.880 Y93.544 E12.48711
G1 X113.705 Y93.977 E12.54035
G1 X113.425 Y94.350 E12.59352
G1 X112.990 Y94.671 E12.65516
G1 X112.641 Y94.816 E12.69820
G1 X112.245 Y94.877 E12.74400
G1 X111.974 Y95.226 F7800.000
G1 X184.621 Y93.091 F7800.000
G1 X184.725 Y92.289 E12.83622 F1800.000
G1 X184.838 Y91.991 E12.87261
G1 X185.045 Y91.493 E12.93404
G1 X185.558 Y90.809 E13.03157
G1 X186.301 Y90.259 E13.13700
G1 X186.970 Y89.982 E13.21948
G1 X187.795 Y89.853 E13.31471 F1800.000
G1 X188.742 Y89.975 E13.42359
G1 X189.527 Y90.318 E13.52119
G1 X190.178 Y90.833 E13.61591
G1 X190.673 Y91.493 E13.70994
G1 X190.879 Y91.991 E13.77138
G1 X190.992 Y92.289 E13.80777
G1 X191.096 Y93.091 E13.89998
G1 X190.992 Y93.893 E13.99219
G1 X190.673 Y94.690 E14.09002
G1 X190.160 Y95.374 E14.18754
G1 X189.416 Y95.924 E14.29297
G1 X188.748 Y96.201 E14.37545
G1 X187.922 Y96.329 E14.47068
G1 X186.975 Y96.208 E14.57956
G1 X186.191 Y95.865 E14.67716
G1 X185.539 Y95.349 E14.77188
G1 X185.045 Y94.690 E14.86591
G1 X184.838 Y94.192 E14.92734
G1 X184.725 Y93.893 E14.96373
G1 X184.629 Y93.151 E15.04911
G1 X185.341 Y93.091 F7800.000
G1 X185.423 Y92.464 E15.12123 F1800.000
G1 X185.502 Y92.254 E15.14683
G1 X185.670 Y91.849 E15.19676
G1 X186.066 Y91.321 E15.27211
G1 X186.656 Y90.885 E15.35565
G1 X187.164 Y90.675 E15.41840
G1 X187.805 Y90.575 E15.49234 F1800.000
G1 X188.550 Y90.670 E15.57799
G1 X189.156 Y90.935 E15.65338
G1 X189.662 Y91.336 E15.72701
G1 X190.048 Y91.849 E15.80023
G1 X190.215 Y92.254 E15.85016
G1 X190.295 Y92.464 E15.87576
G1 X190.376 Y93.091 E15.94788
G1 X190.295 Y93.719 E16.01999
G1 X190.048 Y94.333 E16.09552
G1 X189.651 Y94.862 E16.17087
G1 X189.062 Y95.297 E16.25441
G1 X188.553 Y95.508 E16.31717
G1 X187.913 Y95.608 E16.39110
G1 X187.167 Y95.513 E16.47675
G1 X186.562 Y95.248 E16.55214
G1 X186.055 Y94.847 E16.62577
G1 X185.670 Y94.333 E16.69899
G1 X185.423 Y93.719 E16.77451
G1 X185.349 Y93.151 E16.83979
G1 X186.062 Y93.091 F7800.000
G1 X186.120 Y92.639 E16.89181 F1800.000
G1 X186.166 Y92.517 E16.90662
G1 X186.295 Y92.206 E16.94505
G1 X186.575 Y91.833 E16.99822
G1 X187.010 Y91.511 E17.05987
G1 X187.359 Y91.367 E17.10290
G1 X187.815 Y91.296 E17.15555 F1800.000
G1 X188.358 Y91.365 E17.21796
G1 X188.785 Y91.552 E17.27113
G1 X189.146 Y91.838 E17.32368
G1 X189.422 Y92.206 E17.37608
G1 X189.551 Y92.517 E17.41452
G1 X189.597 Y92.639 E17.42933
G1 X189.656 Y93.091 E17.48134
G1 X189.597 Y93.544 E17.53336
G1 X189.422 Y93.977 E17.58660
G1 X189.142 Y94.350 E17.63977
G1 X188.708 Y94.671 E17.70141
G1 X188.359 Y94.816 E17.74445
G1 X187.903 Y94.887 E17.79709
G1 X187.360 Y94.817 E17.85950
G1 X186.932 Y94.630 E17.91268
G1 X186.571 Y94.344 E17.96523
G1 X186.295 Y93.977 E18.01763
G1 X186.120 Y93.544 E18.07087
G1 X186.069 Y93.151 E18.11605
G1 X185.724 Y92.877 F7800.000
G1 X186.062 Y88.328 F7800.000
G1 X191.173 Y88.328 E18.69886 F1800.000
G1 X191.573 Y88.373 E18.74472
G1 X191.855 Y88.472 E18.77878 F1800.000
G1 X192.108 Y88.631 E18.81284
G1 X192.319 Y88.842 E18.84689
G1 X192.478 Y89.095 E18.88094
G1 X192.577 Y89.377 E18.91501
G1 X192.622 Y89.777 E18.96087
G1 X192.622 Y210.223 E32.69353
G1 X192.577 Y210.623 E32.73939
G1 X192.478 Y210.905 E32.77346
G1 X192.319 Y211.158 E32.80751
G1 X192.108 Y211.369 E32.84156
G1 X191.855 Y211.528 E32.87562
G1 X191.573 Y211.627 E32.90968
G1 X191.173 Y211.672 E32.95554
G1 X108.827 Y211.672 E42.34425
G1 X108.427 Y211.627 E42.39011
G1 X108.145 Y211.528 E42.42418
G1 X107.892 Y211.369 E42.45823
G1 X107.681 Y211.158 E42.49228
G1 X107.522 Y210.905 E42.52633
G1 X107.423 Y210.623 E42.56040
G1 X107.378 Y210.223 E42.60627
G1 X107.378 Y89.777 E56.33892
G1 X107.423 Y89.377 E56.38479
G1 X107.522 Y89.095 E56.41886
G1 X107.681 Y88.842 E56.45291
G1 X107.892 Y88.631 E56.48696
G1 X108.145 Y88.472 E56.52101
G1 X108.427 Y88.373 E56.55508
G1 X108.827 Y88.328 E56.60094
G1 X186.002 Y88.328 E65.39999
G1 X186.062 Y87.614 F7800.000
G1 X191.213 Y87.614 E65.98738 F1800.000
G1 X191.733 Y87.673 E66.04698
G1 X192.167 Y87.824 E66.09940 F1800.000
G1 X192.556 Y88.069 E66.15180
G1 X192.881 Y88.394 E66.20420
G1 X193.126 Y88.783 E66.25661
G1 X193.277 Y89.217 E66.30902
G1 X193.336 Y89.737 E66.36863
G1 X193.336 Y210.263 E80.11043
G1 X193.277 Y210.783 E80.17004
G1 X193.126 Y211.217 E80.22246
G1 X192.881 Y211.606 E80.27486
G1 X192.556 Y211.931 E80.32726
G1 X192.167 Y212.176 E80.37967
G1 X191.733 Y212.327 E80.43208
G1 X191.213 Y212.386 E80.49169
G1 X108.787 Y212.386 E89.88954
G1 X108.267 Y212.327 E89.94914
G1 X107.833 Y212.176 E90.00156
G1 X107.444 Y211.931 E90.05396
G1 X107.119 Y211.606 E90.10636
G1 X106.874 Y211.217 E90.15877
G1 X106.723 Y210.783 E90.21118
G1 X106.664 Y210.263 E90.27079
G1 X106.664 Y89.737 E104.01259
G1 X106.723 Y89.217 E104.07220
G1 X106.874 Y88.783 E104.12462
G1 X107.119 Y88.394 E104.17702
G1 X107.444 Y88.069 E104.22942
G1 X107.833 Y87.824 E104.28182
G1 X108.267 Y87.673 E104.33424
G1 X108.787 Y87.614 E104.39385
G1 X186.002 Y87.614 E113.19747
G1 X186.062 Y86.900 F7800.000
G1 X191.253 Y86.900 E113.78943 F1800.000
G1 X191.867 Y86.969 E113.85984
G1 X192.479 Y87.177 E113.93347 F1800.000
G1 X193.004 Y87.507 E114.00423
G1 X193.443 Y87.946 E114.07498
G1 X193.773 Y88.471 E114.14573
G1 X193.978 Y89.057 E114.21650
G1 X194.050 Y89.697 E114.28985
G1 X194.050 Y210.303 E128.04079
G1 X193.978 Y210.943 E128.11415
G1 X193.773 Y211.529 E128.18491
G1 X193.443 Y212.054 E128.25567
G1 X193.004 Y212.493 E128.32642
G1 X192.479 Y212.823 E128.39717
G1 X191.893 Y213.028 E128.46794
G1 X191.253 Y213.100 E128.54129
G1 X108.747 Y213.100 E137.94828
G1 X108.107 Y213.028 E138.02163
G1 X107.521 Y212.823 E138.09240
G1 X106.996 Y212.493 E138.16315
G1 X106.557 Y212.054 E138.23390
G1 X106.227 Y211.529 E138.30466
G1 X106.022 Y210.943 E138.37542
G1 X105.950 Y210.303 E138.44878
G1 X105.950 Y89.697 E152.19972
G1 X106.022 Y89.057 E152.27307
G1 X106.227 Y88.471 E152.34384
G1 X106.557 Y87.946 E152.41459
G1 X106.996 Y87.507 E152.48534
G1 X107.521 Y87.177 E152.55610
G1 X108.107 Y86.972 E152.62686
G1 X108.747 Y86.900 E152.70021
G1 X186.002 Y86.900 E161.50841
G1 X186.262 Y87.246 F7800.000
G1 X186.404 Y89.102 F7800.000
G1 X186.066 Y88.764 E161.56321 F1800.000
G1 X185.052 Y88.764 E161.67918
G1 X186.177 Y89.889 E161.86126
G1 X185.592 Y90.317 E161.94425
G1 X184.039 Y88.764 E162.19557
G1 X183.025 Y88.764 E162.31154
